!!!OTL: ICH UND MEIN FLAESCHCHEN
!!!ARE: Europa, Mitteleuropa, Deutschland
!!!SCT: B0344
!!!YEM: Copyright 1995, estate of Helmut Schaffrath.
**kern
*ICvox
*Ivox
!! Mixed meters:  6/8; 3/4
*M6/8
*k[b-]
*F:
=1
{8a
8a
8a
8a
8a
8a
*M3/4
=2
*M3/4
8a
8g
8a
4cc
8b-}
=3
*M3/4
{8g
8g
8g
8g
8g
8g
=4
*M3/4
8g
8f
8g
4a
8r}
=5
*M3/4
{8a
8a
8a
8a
8a
8a
=6
*M3/4
8a
8g
8a
4cc
8b-}
=7
*M3/4
{8g
8g
8g
8g
8g
8g
=8
*M3/4
8g
8f
8g
4a
8r}
=9
*M3/4
{8a
8a
8b-
4cc
8a
=10
*M3/4
4b-
8g
8a
8cc
8ff}
=11
*M3/4
{8a
8a
8b-
4cc
8a
=12
*M3/4
4b-
8g
4a
8r}
=13
*M3/4
{4g
4.g
8cc
=14
*M3/4
8cc
8bn
2bn}
=15
*M3/4
{2ff
8bn
8bn
=16
*M3/4
8dd
8cc
4.cc
8b-}
=17
*M3/4
{8a
8a
8b-
4cc
8a
=18
*M3/4
4b-
8g
8a
8cc
8ff}
=19
*M3/4
{8a
8a
8b-
8cc
8cc
8a
=20
8b-
8a
8g
4f
8r}
==
!!!AGN: Trink - Lied
!!!ONB: ESAC (Essen Associative Code) Database: BOEHME
!!!AMT: irregular
!!!AIN: vox
!!!EED: Helmut Schaffrath
!!!EEV: 1.0
*-
